X:1
T:Jolly Robin
C:THE MACHINE
M:C|
L:1/8
K:Bm
B,FdB DEBA | ded/d/d  A/A/A cd | Bb(3 Bcd (3 BBcFd | fgaf eAce | bBBb f/f/f D/D/D  | (3 DDEDE cdAa | (3 BFDB,B, DB,Bf | fgaf eAce | FBB/B/B  (3 bbbfd | BABd eACB, | FFdB B,B,B/B/B  | fgaf eAce | FBbB bfbd | fBDE edac | febB B,CBf | fgaf eAce | deBA Ffb/b/b  | DBdc AA,EF | (3 feedc dBbd | fgaf eAce | ddBA dedc | dcFf acAG | BBfF feB/B/B  | fgaf eAce | FGB/B/B  fddd | (3 Bcddf aeAA | (3 fedFf (3 BdffB | fgaf eAce | (3 beBfB DBb/b/b  | BFB,A, AACD | (3 BBBfB dDFD | fgaf eAce | BABd BcBD | BABb eeEA | BB,B,A, F/F/F B,A, | fgaf eAce | d/d/d (3 bbb BBdc | bffB (3 aecEC | FBbf bBBf | fgaf eAce | ddBb bdbb | fFf/f/f  AcAc | ffbd d/d/d de | fgaf eAce | BfBc DF(3 fee | ffBA A,B,A,E | Bb(3 dde ddB/B/B  | fgaf eAce | 